!!!!SEGMENT: pl-sa--553-a-ix-33--001_pleyel-ignace--sonata.krn
!!!cenid: 18xx:558
!!!COM: Pleyel, Ignace
!!!COM-rismID: pe24761
!!!CDT: 1757/06/18-1831/11/14
!!!CNT: French
!!!OTL: Sonata
!!!PDT:
!!!AGN: Secular; Sonata
!!!YEC: Copyright 2022 Narodowy Instytut Fryderyka Chopina (https://polishscores.org)
!!!YEM: License CC-BY-4.0 (https://creativecommons.org/licenses/by/4.0)
!!!SMS-siglum: PL-SA
!!!SMS-shelfmark: 553/A IX 33
!!!SMS-shelfwork: 001 W
!!!SMS-variant:
!!!SMS-altvar:
!!!NIFC-rismSourceID: 1001112133
!!!NIFC-rismChildID: 1001112133
!!!NIFC-islandoraID: none
!!!URL-pdf-islandora:
!!!URL-scan: https://bc.bdsandomierz.pl/dlibra/publication/1309/edition/1277/content @EN{Scan in the Sandomierz Diocese Digital Library} @PL{Skany w portalu Cyfrowa Biblioteka Diecezjalna w Sandomierzu}
!!!IIIF:
!!!ONB-nifc: Str. 1-7
!!!AIN: 2 empty
!!!key:
**kern	**kern	**dynam
*part2	*part1	*
*staff2	*staff1	*
*Iempty	*Iempty	*
*I"	*I"Sonata	*
*I'keyb	*I'keyb	*
*clefF4	*clefG2	*
*k[b-e-]	*k[b-e-]	*
*B-:	*B-:	*
*M2/4	*M2/4	*
=1	=1	=1
!LO:TX:a:t=P:problem=mixed beam	!LO:TX:a:i:t=Tema andante	!
8B-\L	8b-L 8d/	.
8BB-/J	8ccJ 8e-/	.
4r	8ddL 8f/	.
.	8ddJ 8f/	.
=2	=2	=2
8r	8.ccL 8.e-/	.
8F\	.	.
.	16aJk 16c/	.
16BB-/LL	8b- 8d/	.
16D/	.	.
16F/	8r	.
16B-/JJ	.	.
=3	=3	=3
!LO:TX:a:t=P:problem=mixed beam	!	!
8BB-/L	8.ddL 8.b-\	.
8B-\J	.	.
.	16ee-Jk 16cc\	.
4r	8ffL 8dd\	.
.	8ffJ 8dd\	.
=4	=4	=4
8r	8.ee-L 8.cc\	.
8G\	.	.
.	16ccJk 16a\	.
16BB-/LL	8dd 8b-\	.
16D/	.	.
16F/	8r	.
16B-/JJ	.	.
=5	=5	=5
!LO:TX:a:t=P:problem=mixed beam	!	!
.	8qqb-	.
8BB-/L	8.bb-\L	.
8B-\J	.	.
.	16gg\J	.
8r	16een\LL	.
.	16cc\	.
8c 8B-\	16dd\	.
.	16ee\JJ	.
=6	=6	=6
4c 4A\	8.ff\L	.
.	16aa\Jk	.
8r	16ddd\LL	.
.	16ccc\	.
8F 8AA/	16bb-\	.
.	16aa\JJ	.
=7	=7	=7
*^	*	*
8F/L	4BB-\	16.gg\LL	.
.	.	32aa\	.
8G/J	.	16.bb-\	.
.	.	32gg\JJ	.
8A/L	4C\	8ff\L	.
8G/J	.	8een\J	.
=8	=8	=8	=8
4B-\	4.F\	(>4gg\	.
8F/	.	8ff\)	.
8r	8ryy	8r	.
*v	*v	*	*
=9:|!|:	=9:|!|:	=9:|!|:
*	*^	*
4F 4FF/	8.f/L	8.ryy	.
.	16g/Jk	16en\	.
4r	16aLL 16f/	4ryy	.
.	16b- 16g/	.	.
.	16cc 16a/	.	.
.	16ddJJ 16b-/	.	.
*	*v	*v	*
=10	=10	=10
8.F\L	4.ee- 4.cc\	.
16G\Jk	.	.
16A\LL	.	.
16B-\	.	.
16c\	8dd 8b-\	.
16d\JJ	.	.
=11	=11	=11
*2\right	*	*
2d\	8.ccL 8.a/	.
.	16ddJk 16b-/	.
.	16ee-LL 16cc/	.
.	16ff 16dd/	.
.	16gg 16ee-/	.
.	16aaJJ 16dd/	.
!!LO:LB:g=original
=12	=12	=12
8d\	8bb- 8dd\	.
8r	16r	.
.	16bb-\	.
4r	16aa\LL	.
.	16bb-\	.
.	16ddd\	.
.	16bb-\JJ	.
=13	=13	=13
8B- 8E-\	8gg\	.
8r	16r	.
.	16bb-\	.
4r	16aa\LL	.
.	16bb-\	.
.	16ddd\	.
.	16bb-\JJ	.
=14	=14	=14
8B- 8D\	8ff\	.
8r	16r	.
.	16eee-\	.
8r	16ccc\LL	.
.	16bb-\	.
8B- 8D\	16aa\	.
.	16bb-\JJ	.
=15	=15	=15
*^	*	*
.	.	8qqaa/	.
8B-/L	4E-\	8gg\L	.
8c/J	.	16ff\L	.
.	.	16ee-\JJ	.
8B-/L	4F\	8dd\L	.
8A/J	.	8cc\J	.
=16	=16	=16	=16
*	*	*^	*
4A/	4.BB-\	4cc 4f/	4e-\	.
8B-/	.	8b- 8f 8d/	8ryy	.
8r	8ryy	8r	8ryy	.
*v	*v	*	*	*
*	*v	*v	*
=17:|!|:	=17:|!|:	=17:|!|:
*clefF4	*clefG2	*
*k[b-e-]	*k[b-e-]	*
*M2/4	*M2/4	*
*	*Xtuplet	*
!	!LO:TX:a:i:t=Varia 1	!
!	!LO:TX:a:t=P:problem=napis na pięciolinii przed kluczem	!
4BB-/	24r	.
.	24B-/LL	.
.	(<24d/	.
.	24f/	.
.	24d/	.
.	24f/JJ)	.
8r	24b-/LL	.
.	24f/	.
.	24b-/	.
8BB-/	24dd/	.
.	24b-/	.
.	24dd/JJ	.
=18	=18	=18
!LO:TX:a:t=P:problem=mixed beam	!	!
8FF/L	24cc\LL	.
.	24ee-\	.
.	24cc\JJ	.
8F\J	24a\LL	.
.	24cc\	.
.	24a\JJ	.
*Xtuplet	*	*
24BB-/LL	8b-/	.
24D/	.	.
24F/	.	.
24B-/	8r	.
24F/	.	.
24D/JJ	.	.
=19	=19	=19
4BB-/	24r	.
.	24d/LL	.
.	(<24f/	.
.	24b-/	.
.	24f/	.
.	24b-/JJ)	.
8r	24dd\LL	.
.	24b-\	.
.	24dd\	.
8BB-/	24ff\	.
.	24dd\	.
.	24ff\JJ	.
!!LO:LB:g=original
=20	=20	=20
!LO:TX:a:t=P:problem=mixed beam	!	!
8FF/L	24ee-\LL	.
.	(>24gg\	.
.	24ee-\	.
8F\J	24cc\	.
.	24ee-\)	.
.	24cc\JJ	.
24BB-/LL	8dd\	.
24D/	.	.
24F/	.	.
24B-/	8r	.
24F/	.	.
24D/JJ	.	.
=21	=21	=21
4BB-/	24r	.
.	24d/LL	.
.	(<24f/	.
.	24b-/	.
.	24f/	.
.	24dd/JJ)	.
4B-\	24r	.
.	24en/LL	.
.	24g/	.
.	24cc/	.
.	24g/	.
.	24ee-/JJ	.
=22	=22	=22
4A\	24f\LL	.
.	(>24a\	.
.	24cc\	.
.	24ff\	.
.	24aa\	.
.	24ccc\JJ)	.
8r	24fff\LL	.
.	(>24eeen\	.
.	24ddd\	.
[<8F\ 8AA\	24ccc\	.
.	24bb-\	.
.	24aa\JJ)	.
=23	=23	=23
*^	*	*
8F/L]	4BB-\	(>24gg\LL	.
.	.	24bb-\	.
.	.	24aa\	.
8G/	.	24bb-\	.
.	.	24ccc\)	.
.	.	24ddd\JJ	.
8A/	4C\	24ccc\LL	.
.	.	(>24bb-\	.
.	.	24aa\	.
8B-/J	.	24gg\	.
.	.	24ff\	.
.	.	24een\JJ)	.
*v	*v	*	*
=24	=24	=24
!	!LO:TUP:a:problem=klamra łukowa	!
(>4.B-\ [<4.F\	24ee-\LL	.
.	24bb-\	.
.	24aa\	.
.	24gg\	.
.	24ff\	.
.	24een\JJ	.
.	8ff\	.
8A\) 8F\]	8r	.
=25:|!|:	=25:|!|:	=25:|!|:
4F/ 4FF/	24f/LL	.
.	(24a 24f/	.
.	24g 24en/	.
.	24b- 24g/	.
.	24a 24f/)	.
.	24ccJJ 24a/	.
4r	24b-LL 24g/	.
.	(<24dd 24b-/	.
.	24cc 24a/	.
.	24ee- 24cc/	.
.	24dd 24b-/	.
.	24ffJJ 24dd/)	.
=26	=26	=26
*	*^	*
24F\LL	4.ee-/ 4.cc/	4.ryy	.
24A\	.	.	.
24G\	.	.	.
24B- 24A\	.	.	.
24A\	.	.	.
24c\JJ	.	.	.
24B-\LL	.	.	.
24d\	.	.	.
24c\	.	.	.
24e-\	8dd/	8b-\	.
24d\	.	.	.
24f\JJ	.	.	.
*	*v	*v	*
=27	=27	=27
!LO:TX:a:t=P:problem=brak początku łuku	!	!
(>2e-\	24b-LL 24g\	.
.	(>24cc 24a\	.
.	24dd 24b-\	.
.	24ee- 24cc\)|	.
.	(>24ee- 24cc\	.
.	24ffJJ 24dd\)	.
!!LO:LB:g=original
.	24ggLL 24ee-\|	.
.	(>24gg 24ee-\	.
.	24aa 24ff\)	.
.	24bb- 24gg\|	.
.	(>24bb- 24gg\	.
.	24cccJJ 24aa\)	.
=28	=28	=28
4d\)	8ddd 8bb-\	.
.	(>24b-\LL	.
.	24dd\	.
.	24ff\JJ)	.
8r	(>24bb-\LL	.
.	24bb-\	.
.	24bb-\	.
.	8qqccc/	.
8B- 8D\	24bb-\)	.
.	24aa\	.
.	24bb-\JJ	.
=29	=29	=29
8B- 8E-\	8gg\	.
8r	24b-\LL	.
.	24ee-\	.
.	24gg\JJ	.
8r	24bb-\LL	.
.	24bb-\	.
.	24bb-\	.
!	!LO:TX:a:t=P:problem=trudna do stwierdzenia wysokość przednutki	!
.	4qaa/	.
8B- 8E-\	24bb-\	.
.	24aa\	.
.	24bb-\JJ	.
=30	=30	=30
!LO:N:vis=4	!	!
8B- 8D\	8ff'>\	.
8r	24b-\LL	.
.	24dd\	.
.	24ff\JJ	.
8r	24bb-\LL	.
.	24bb-\	.
.	24bb-\	.
!	!LO:TX:a:t=P:problem=trudna do stwierdzenia wysokość przednutki	!
.	4qgg/	.
8B- 8D\	24bb-\	.
.	24aa\	.
.	24bb-\JJ	.
=31	=31	=31
*^	*	*
8B-/L	4E-\	24gg\LL	.
.	.	24bb-\	.
.	.	24bb-\	.
!	!	!LO:TX:a:t=P:problem=trudna do stwierdzenia wysokość przednutki	!
.	.	4qgg/	.
8c/	.	24bb-\	.
.	.	24aa\	.
.	.	24gg\JJ	.
.	.	4qqgg/	.
8d/	4F\	24ff\LL	.
.	.	24ee-\	.
.	.	24dd\	.
.	.	8qqdd/	.
8e-/J	.	24cc\	.
.	.	24b-\	.
.	.	24a\JJ	.
*v	*v	*	*
=32	=32	=32
4e- 4B-\	24a\LL	.
.	24ee-\	.
.	24dd\	.
.	24cc\	.
.	24b-\	.
.	24a\JJ	.
8d 8B-\	8b-\	.
8r	8r	.
=33:|!|:	=33:|!|:	=33:|!|:
*clefF4	*clefG2	*
*k[b-e-]	*k[b-e-]	*
*M2/4	*M2/4	*
!	!LO:TX:a:i:t=Varia 2	!
!	!LO:TX:a:t=P:problem=napis na pięciolinii przed kluczem	!
16B-\LL	8.b-\L	.
16f\	.	.
16d\	.	.
16f\JJ	16cc\Jk	.
16B-\LL	8dd\L	.
16f\	.	.
16d\	8dd\J	.
16f\JJ	.	.
!!LO:LB:g=original
=34	=34	=34
16F\LL	(>16dd\LL	.
16f\	16ee-\	.
16e-\	16cc\	.
16f\JJ	16a\JJ)	.
16B-\LL	8b-\	.
16f\	.	.
16d\	8r	.
16f\JJ	.	.
=35	=35	=35
16B-\LL	8.dd\L	.
16f\	.	.
16d\	.	.
16f\JJ	16ee-\Jk	.
16B-\LL	32ff\LLL	.
.	32bb-\	.
16f\	32ddd\	.
.	32ccc\	.
16d\	32bb-\	.
.	32aa\	.
16f\JJ	32gg\	.
.	32ff\JJJ	.
=36	=36	=36
16A\LL	(>16ff\LL	.
16f\	16een\	.
16c\	16ee-X\)	.
16f\JJ	16dd\JJ	.
16B-\LL	8dd\	.
16f\	.	.
16d\	8r	.
16f\JJ	.	.
=37	=37	=37
16B-\LL	8b-\L	.
16f\	.	.
16d\	[>8bb-\J	.
16f\JJ	.	.
16G\LL	32bb-\LLL]	.
.	32aa\	.
16en\	32gg\	.
.	32ff\	.
16c\	32een\	.
.	32dd\	.
16e\JJ	32cc\	.
.	32b-\JJJ	.
=38	=38	=38
8f 8F\	32a\LLL	.
.	32cc\	.
.	32b-\	.
.	32a\	.
8r	32b-\	.
.	32cc\	.
.	32dd\	.
.	32een\JJJ	.
4r	32ff\LLL	.
.	32gg\	.
.	32aa\	.
.	32bb-\	.
.	32ccc\	.
.	32ddd\	.
.	32eeen\	.
.	32fff\JJJ	.
*clefG2	*	*
=39	=39	=39
8r	16fff\KL	.
.	8gg\	.
8gL 8d 8B-/	.	.
.	16bb-\Jk	.
8a 8f 8c/	32aa\KLL	.
.	16.ccc\	.
8b-J 8g 8c/	16.een\	.
.	32gg\JJk	.
=40	=40	=40
*clefF4	*	*
16r	(>4gg 4een (<4b-\	.
16F\LL	.	.
16C\	.	.
16F\JJ	.	.
8FF/	8ff 8a\))	.
8r	8r	.
=41:|!|:	=41:|!|:	=41:|!|:
4F 4FF/	8.f/L	.
.	16g/Jk	.
4r	(>32a\LLL	.
.	32g\	.
.	32b-\	.
.	32a\	.
.	32cc\	.
.	32b-\	.
.	32dd\)	.
.	32cc\JJJ	.
!!LO:PB:g=original
=42	=42	=42
8.F\L	8.ffL 8.a\	.
16G\Jk	16eenJk 16b-\	.
32A\LLL	8ee-XL 8cc 8f\	.
32G\	.	.
32B-\	.	.
32A\	.	.
32c\	8ddJ 8b- 8f\	.
32B-\	.	.
32d\	.	.
32c\JJJ	.	.
=43	=43	=43
2e-\	8.ccL 8.a 8.f\	.
.	16dd\Jk	.
.	(>32ee-\LLL	.
.	32dd\	.
.	32cc\	.
.	32dd\	.
.	32ee-\	.
.	32ff\	.
.	32gg\)	.
.	32aa\JJJ	.
=44	=44	=44
8d\L	8bb-\L	.
8fJ 8d\	16r	.
.	16bb-\Jk	.
4r	(>32aa\LLL	.
.	32bb-\	.
.	32aa\	.
.	32bb-\	.
.	32ddd\	.
.	32bb-\	.
.	32aa\)	.
.	32bb-\JJJ	.
*clefG2	*	*
=45	=45	=45
8r	8gg\L	.
8b- 8e-/	16r	.
.	16bb-\Jk	.
4r	(>32aa\LLL	.
.	32bb-\	.
.	32aa\	.
.	32bb-\	.
.	32eee-\	.
.	32bb-\	.
.	32aa\)	.
.	32bb-\JJJ	.
=46	=46	=46
8r	8ff\L	.
8b- 8d/	16r	.
.	16bb-\Jk	.
*clefF4	*	*
8r	(>32aa\LLL	.
.	32bb-\	.
.	32aa\	.
.	32bb-\	.
8B-\ 8D\	32ddd\	.
.	32bb-\	.
.	32aa\)	.
.	32bb-\JJJ	.
=47	=47	=47
*^	*	*
8B-/L	4E-\	32aa\LLL	.
.	.	32gg\	.
.	.	32ff#X\	.
.	.	32gg\	.
8c/J	.	32ffn\	.
.	.	32ee-\	.
.	.	32dd\	.
.	.	32cc\JJJ	.
8d/L	4F\	32b-/LLL	.
.	.	32a/	.
.	.	32b-/	.
.	.	32dd/	.
8e-/J	.	32ff/	.
.	.	32f/	.
.	.	32g/	.
.	.	32a/JJJ	.
*v	*v	*	*
=48	=48	=48
8d 8B-\	32b-/LLL	.
.	32dd/	.
.	32cc/	.
.	32b-/	.
8r	32a/	.
.	32b-/	.
.	32f/	.
.	32d/JJJ	.
8BB- 8BBB-/	8B-/	.
8r	8r	.
!!LO:LB:g=original
=49:|!|:	=49:|!|:	=49:|!|:
*k[b-e-a-d-g-]	*k[b-e-a-d-g-]	*
*M2/4	*M2/4	*
!	!LO:TX:a:i:t=Varia&colon;3	!
!	!LO:TX:a:t=P:problem=napis na pięciolinii przed kluczem	!
16BB-/LL	8.b-L 8.d-/	.
16F/	.	.
16D-/	.	.
16C/JJ	16ccJk 16e-/	.
16BB-/LL	8dd-L 8f/	.
16F/	.	.
16D-/	8dd-J 8f/	.
16BB-/JJ	.	.
=50	=50	=50
!LO:TX:a:t=P:problem=mixed beam	!	!
16FF/LL	8ccL 8e-/	.
16F\	.	.
16FF/	8anJ 8c/	.
16F\JJ	.	.
!LO:TX:a:t=P:problem=mixed beam	!	!
16BB-/LL	8b- 8d-/	.
16B-\	.	.
16F\	8r	.
16D-\JJ	.	.
=51	=51	=51
16BB-/LL	8.dd-L 8.b-\	.
16F/	.	.
16D-/	.	.
16C/JJ	16ee-Jk 16cc\	.
16BB-/LL	8ffL 8dd-\	.
16F/	.	.
16D-/	8ffJ 8dd-\	.
16BB-/JJ	.	.
=52	=52	=52
!LO:TX:a:t=P:problem=mixed beam	!	!
16FF/LL	8ee-L 8cc\	.
16F\	.	.
16FF/	8ccJ 8an\	.
16F\JJ	.	.
!LO:TX:a:t=P:problem=mixed beam	!	!
16BB-/LL	8dd- 8b-\	.
16B-\	.	.
16F\	8r	.
16D-\JJ	.	.
=53	=53	=53
16BB-\LL	8.bb-L 8.dd-\	.
16FJ 16D-\	.	.
8B-\J	.	.
.	16aa-Jk 16cc\	.
16BB-\LL	8.ggnL 8.b-\	.
16Gn\J	.	.
8B-\J	.	.
.	16ffJk 16a-\	.
=54	=54	=54
16C\LL	4een 4g-\	.
16Gn\	.	.
16c\	.	.
16B-\JJ	.	.
16A-\LL	8ffL 8a-\	.
16c\	.	.
16G\	8ggnJ 8b-\	.
16c\JJ	.	.
=55	=55	=55
16F\LL	8aa-L 8cc\	.
16A-\	.	.
16d-\	8ffJ 8a-\	.
16c\JJ	.	.
16B-\LL	8ggnL 8b-\	.
16Gn\	.	.
16c\	8eenJ 8g-\	.
16C\JJ	.	.
=56	=56	=56
16r	4ff 4f\	.
16F\LL	.	.
16C\	.	.
16F\JJ	.	.
8FF/	4r	.
8r	.	.
=57:|!|:	=57:|!|:	=57:|!|:
*^	*	*
4FF/	[>2F/	16r	.
.	.	16f/LL	.
.	.	16en/	.
.	.	16f/JJ	.
8r	.	16gn/LL	.
.	.	16f/	.
8e-/	.	16an/	.
.	.	16f/JJ	.
=58	=58	=58	=58
8d-/L	2F\]	16b-/LL	.
.	.	16f/	.
8An/	.	16cc/	.
.	.	16f/JJ	.
8B-/	.	16dd-/LL	.
.	.	16f/	.
8c/J	.	16ee-/	.
.	.	16f/JJ	.
=59	=59	=59	=59
!	!LO:TX:a:t=P:problem=znak podobny do kasownika po 2F	!LO:TX:a:t=P:problem=mixed beam	!
8d-/L	2F\	16ff\LL	.
.	.	16f/	.
8e-/J	.	16gg-\	.
.	.	16f/JJ	.
!	!	!LO:TX:a:t=P:problem=mixed beam	!
8d-/L	.	16ff\LL	.
.	.	16f/	.
8c/J	.	16ee-\	.
.	.	16f/JJ	.
!!LO:LB:g=original
=60	=60	=60	=60
4B-/	8F\	16dd-/LL	.
.	.	16f/	.
.	8Gn\	16dd-/	.
.	.	16en/JJ	.
16AnLL 16F\	4ryy	8cc 8f\	.
16f\	.	.	.
16e-\	.	8r	.
16f\JJ	.	.	.
*v	*v	*	*
=61	=61	=61
*	*^	*
!	!	!LO:N:vis=4	!
[>4d-\	16r	4.b-\	.
.	16bb-/LL	.	.
.	16aan/	.	.
.	16bb-/JJ	.	.
16d-\LL]	8.gg-/L	.	.
16e-\J	.	.	.
[>8c\J	.	[>8a-\	.
.	16aa/Jk	.	.
=62	=62	=62	=62
16c\LL]	8.ff/L	8a-\]	.
16d-\J	.	.	.
(>8c\J	.	4g-\	.
.	16gg-/Jk	.	.
16B-\LL)	8.ee-/L	.	.
16c\J	.	.	.
[>8An\J	.	[>8f\	.
.	16ff/Jk	.	.
=63	=63	=63	=63
16A\LL]	8.dd-/L	8f\L]	.
16B-\J	.	.	.
8A-X\	.	[>8b-\J	.
.	16bb-/Jk	.	.
8G-\	8ee-/L	16b-\KL]	.
.	.	8b-\	.
8F\J	8dd-/J	.	.
.	.	16b-\Jk	.
=64	=64	=64	=64
4E-\	16cc/LL	4b-\	.
.	16gg-/	.	.
.	16ff/	.	.
.	16ee-/JJ	.	.
4F\	16dd-/LL	16b-\LL	.
.	16cc/	16e-\	.
.	16b-/	16d-\	.
.	16an/JJ	16c\JJ	.
=65	=65	=65	=65
16r	(>4cc 4f/	(<4e-\	.
16B-\LL	.	.	.
16F\	.	.	.
16B-\JJ	.	.	.
8BB-/	8b-/) 8f 8d-/)	4ryy	.
8r	8ryy	.	.
*	*v	*v	*
=66:|!|:	=66:|!|:	=66:|!|:
*clefF4	*clefG2	*
*k[b-e-]	*k[b-e-]	*
*M2/4	*M2/4	*
!LO:TX:a:t=P:problem=mixed beam	!	!
!	!LO:N:vis=16	!
8BB-/L	32r	.
!	!LO:TX:a:i:t=Varia 4	!
!	!LO:TX:a:t=P:problem=napis na pięciolinii przed kluczem	!
.	32b-\LLL	.
.	32a\	.
.	32b-\	.
8f\J	32dd\	.
.	32b-\	.
.	32a\	.
.	32b-\JJJ	.
8d\L	32ff\LLL	.
.	32b-\	.
.	32a\	.
.	32b-\	.
8B-\J	32bb-\	.
.	32b-\	.
.	32a\	.
.	32b-\JJJ	.
=67	=67	=67
4e- 4c 4F\	32a\LLL	.
.	32gg\	.
.	32ff\	.
.	32ee-\	.
.	32dd\	.
.	32cc\	.
.	32b-\	.
.	32a\JJJ	.
32r	8b-\	.
32B-\LLL	.	.
32A\	.	.
32B-\	.	.
32d\	8r	.
32B-\	.	.
32F\	.	.
32D\JJJ	.	.
=68	=68	=68
!LO:TX:a:t=P:problem=mixed beam	!	!
!	!LO:N:vis=16	!
8BB-/L	32r	.
.	32b-/LLL	.
.	32a/	.
.	32b-/	.
8f\J	32dd/	.
.	32b-/	.
.	32a/	.
.	32b-/JJJ	.
!!LO:LB:g=original
8d\L	32ff\LLL	.
.	32b-\	.
.	32a\	.
.	32b-\	.
8B-\J	32bb-\	.
.	32b-\	.
.	32a\	.
.	32b-\JJJ	.
=69	=69	=69
4e- 4c 4F\	32a\LLL	.
.	32cc\	.
.	32ee-\	.
.	32gg\	.
.	32ff\	.
.	32ee-\	.
.	32dd\	.
.	32cc\JJJ	.
!LO:N:vis=16	!	!
32r	8dd\	.
32B-\LLL	.	.
32A\	.	.
32B-\	.	.
32d\	8r	.
32B-\	.	.
32F\	.	.
32D\JJJ	.	.
=70	=70	=70
!LO:TX:a:t=P:problem=mixed beam	!	!
!	!LO:N:vis=16	!
8BB-/L	32r	.
.	(>32b-\LLL	.
.	32dd\	.
.	32ff\	.
8B-\J	32bb-\	.
.	32aa\	.
.	32gg\	.
.	32ff\JJJ)	.
!LO:TX:a:t=P:problem=mixed beam	!	!
8GG/L	32een\LLL	.
.	32cc\	.
.	32ee\	.
.	32gg\	.
8G\J	32ccc\	.
.	32bb-\	.
.	32aa\	.
.	32gg\JJJ	.
=71	=71	=71
4AA/	32ff\LLL	.
.	(>32ff\	.
.	32gg\	.
.	32aa\	.
.	32bb-\	.
.	32ccc\	.
.	32ddd\)	.
.	32eeen\JJJ	.
8r	32fff\LLL	.
.	(>32eee\	.
.	32ddd\	.
.	32ccc\	.
8A\	32bb-\	.
.	32aa\	.
.	32gg\)	.
.	32ff\JJJ	.
=72	=72	=72
8B-\L	32een\LLL	.
.	32dd\	.
.	32cc#X\	.
.	32dd\	.
8B-\J	32ff\	.
.	32dd\	.
.	32ccn\	.
.	32b-\JJJ	.
8c\L	32a\LLL	.
.	32cc\	.
.	32a\	.
.	32cc\JJJ	.
8B-J 8C\	32en/LLL	.
.	32g/	.
.	32e/	.
.	32g/JJJ	.
=73	=73	=73
4A 4F\	32f/LLL	.
.	32f/	.
.	32a/	.
.	32cc/JJJ	.
.	32ff/	.
.	32ff\LLL	.
.	32aa\	.
.	32ccc\JJJ	.
4r	8fff\	.
.	8r	.
=74:|!|:	=74:|!|:	=74:|!|:
*^	*	*
!	!	!LO:N:vis=16	!
4FF/	[<2F/	32r	.
.	.	32f/LLL	.
.	.	32en/	.
.	.	32f/	.
.	.	32g/	.
.	.	32f/	.
.	.	32e/	.
.	.	32f/JJJ	.
16e-/LL	.	32a/LLL	.
.	.	32f/	.
16d/	.	32b-/	.
.	.	32f/	.
16c/	.	32cc/	.
.	.	32f/	.
16B-/JJ	.	32dd/	.
.	.	32f/JJJ	.
!!LO:LB:g=original
=75	=75	=75	=75
[>4A/	2F\]	32ee-/LLL	.
.	.	32f/	.
.	.	32en/	.
.	.	32f/	.
.	.	32g/	.
.	.	32f/	.
.	.	32e/	.
.	.	32f/JJJ	.
16A/LL]	.	32ee-/LLL	.
.	.	32f/	.
16B-/	.	32dd/	.
.	.	32f/	.
16c/	.	32cc/	.
.	.	32f/	.
16d/JJ	.	32b-/	.
.	.	32f/JJJ	.
*v	*v	*	*
=76	=76	=76
2e- 2F\	32a\LLL	.
.	32cc\	.
.	32b-\	.
.	32dd\	.
.	32cc\	.
.	32ee-\	.
.	32dd\	.
.	32ff\JJJ	.
.	32ee-\LLL	.
.	32gg\	.
.	32ff\	.
.	32aa\	.
.	32gg\	.
.	32bb-\	.
.	32aa\	.
.	32ccc\JJJ	.
=77	=77	=77
16r	8bb-\	.
16dKL 16B-\	.	.
8dJ 8B-\	32r	.
.	32bb-\LLL	.
.	32aa\	.
.	32bb-\JJJ	.
4r	32ff\LLL	.
.	32bb-\	.
.	32dd\	.
.	32bb-\JJJ	.
.	32b-\LLL	.
.	32bb-\	.
.	32f\	.
.	32bb-\JJJ	.
=78	=78	=78
16r	8g/	.
16e-KL 16B-\	.	.
8e-J 8B-\	32r	.
.	32bb-\LLL	.
.	32aa\	.
.	32bb-\JJJ	.
4r	32gg\LLL	.
.	32bb-\	.
.	32ee-\	.
.	32bb-\JJJ	.
.	32b-\LLL	.
.	32bb-\	.
.	32g\	.
.	32bb-\JJJ	.
=79	=79	=79
16r	8f/	.
16dKL 16B-\	.	.
!	!LO:N:vis=16	!
8dJ 8B-\	32r	.
.	32bb-\LLL	.
.	32aa\	.
.	32bb-\JJJ	.
4r	32ccc\LLL	.
.	32bb-\	.
.	32ddd\	.
.	32ccc\JJJ	.
.	32eee-\LLL	.
.	32ddd\	.
.	32ccc\	.
.	32bb-\JJJ	.
=80	=80	=80
*^	*	*
8r	4E-\	32aa\LLL	.
.	.	32gg\	.
.	.	32ff#X\	.
.	.	32gg\JJJ	.
8c/	.	32ffn\LLL	.
.	.	32ee-\	.
.	.	32dd\	.
.	.	32cc\JJJ	.
8d\ 8F\LL	4ryy	(>32b-\LLL	.
.	.	32ff\	.
.	.	32een\	.
.	.	32ee-X\	.
8e-\ 8F\JJ	.	32dd\)	.
.	.	32cc\	.
.	.	32b-\	.
.	.	32a\JJJ	.
*v	*v	*	*
!!LO:PB:g=original
=81	=81	=81
32dLLL 32B-\	32b-\LLL|	.
(>32B-\	(32b-\	.
32d\	32dd\	.
32B-\JJJ)	32b-\JJJ)	.
32F\LLL	32f/LLL	.
32B-\	32b-/	.
32D\	32d/	.
32F\JJJ	32f/JJJ	.
8BB-/	8B-/	.
8r	8r	.
=82:|!|:	=82:|!|:	=82:|!|:
*clefF4	*clefG2	*
*k[b-e-]	*k[b-e-]	*
*M2/4	*M2/4	*
!	!LO:TX:a:t=P:problem=napis na pięciolinii przed kluczem	!
!	!LO:TX:i:a:t=Tema Da Capo	!
4r	16r	.
.	(>16a\LL	.
.	16b-\	.
.	16dd\JJ)	.
=83	=83	=83
*^	*	*
*clefG2	*clefG2	*	*
4f 4d/	2B-\	(>16ff\LL	.
.	.	16dd\J)	.
.	.	8b-\J	.
4g 4e-/	.	(>16gg\LL	.
.	.	16ee-\J)	.
.	.	8b-\J	.
=84	=84	=84	=84
4f 4d/	4B-\	(>16ff\LL	.
.	.	16dd\J)	.
.	.	8b-\J	.
*clefF4	*	*	*
8r	8ryy	16bb-\LL	.
.	.	16aa\	.
8B-\ 8D\	8ryy	16gg\	.
.	.	16ff\JJ	.
=85	=85	=85	=85
8B-/L	8C\L	16een\LL	.
.	.	16ff\	.
8A/J	8F\J	16ee-X\	.
.	.	16dd\JJ	.
4B-/	8BB-\L	16ee-\LL	.
.	.	16dd\	.
.	8D\J	16cc\	.
.	.	16b-\JJ	.
*v	*v	*	*
=86	=86	=86
4A\ 4F\	(>16cc\LL	.
.	16a\J)	.
.	8f\J	.
4r	16r	.
.	(>16a\LL	.
.	16b-\	.
.	16dd\JJ)	.
=87	=87	=87
*^	*	*
*clefG2	*	*	*
4f 4d/	2B-\	(>16ff\LL	.
.	.	16dd\J)	.
.	.	8b-\J	.
4g 4e-/	.	(>16gg\LL	.
.	.	16ee-\J)	.
.	.	8b-\J	.
*v	*v	*	*
=88	=88	=88
4f/ 4d/ 4B-/	(>16ff\LL	.
.	16dd\J)	.
.	8b-\J	.
*clefF4	*	*
8ryy	16b-\LL	.
.	16ff\	.
8F\ 8BB-\	16bb-\	.
.	16ddd\JJ	.
!!LO:LB:g=original
=89	=89	=89
8.FL 8.AA/	(>16ccc\LL	.
.	16aa\J)	.
.	8ff\J	.
16FJk 16AA/	.	.
8.GL 8.C/	(>16bb-\LL	.
.	16gg\J)	.
.	8een\J	.
16GJk 16C/	.	.
=	=	=
4A 4F\	4ff\	.
=90:|!|:	=90:|!|:	=90:|!|:
4r	16r	.
.	16en/LL	.
.	16f/	.
.	16a/JJ	.
=91	=91	=91
*^	*	*
4c 4A/	2F\	16cc/LL	.
.	.	16a/J	.
.	.	8f/J	.
4d 4B-/	.	16dd/LL	.
.	.	16b-/J	.
.	.	8f/J	.
*v	*v	*	*
=92	=92	=92
4e- 4c 4F\	(>16ee-\LL	.
.	16cc\J)	.
.	8a\J|	.
4c 4A 4F\	(>16gg\LL	.
.	16ee-\J)	.
.	8cc\J|	.
=93	=93	=93
4d 4B- 4F\	(>16dd\LL	.
.	16ff\J)	.
.	8b-\J|	.
4c 4B- 4F\	(>16bb-\LL	.
.	16gg\J)	.
.	8een\J|	.
=94	=94	=94
4c 4A 4F\	[>4ff\|	.
4r	16ff\]	.
.	16a\LL	.
.	16b-\	.
.	16dd\JJ	.
=95	=95	=95
*^	*	*
*clefG2	*	*	*
4f 4d/	2B-\	(>16ff\LL	.
.	.	16dd\J)	.
.	.	8b-\J|	.
4g 4e-/	.	(>16gg\LL	.
.	.	16ee-\J)	.
.	.	8b-\J|	.
*v	*v	*	*
=96	=96	=96
4f/ 4d/ 4B-/	(>16ff\LL	.
.	16dd\J)	.
.	8b-\J|	.
*clefF4	*	*
8.B-L 8.F 8.C\	(>16bb-\LL	.
.	16ff\J)	.
.	8dd\J|	.
16B-Jk 16F 16C\	.	.
=97	=97	=97
8.cL 8.G 8.E-\	(>16cc\LL	.
.	16ee-\J)	.
.	8gg\J|	.
16cJk 16G 16E-\	.	.
8.e-L 8.c 8.F\	(<16f/LL	.
.	16a/J)	.
.	8cc'>/J	.
16e-Jk 16c 16F\	.	.
=	=	=
4d 4B-\	4b-/	.
=98:|!|:	=98:|!|:	=98:|!|:
.	8qqcc#X/	.
4r	8dd\L	.
.	8qqcc#/	.
.	8dd\J	.
=99	=99	=99
16G\LL	4gg\	.
16d\	.	.
16B-\	.	.
16d\JJ	.	.
16G\LL	16aa\LL	.
16d\	16gg\	.
16B-\	16ff#X\	.
16d\JJ	16gg\JJ	.
=100	=100	=100
16F#X\LL	4aa\	.
16d\	.	.
16A\	.	.
16d\JJ	.	.
*rep	*	*
16F#\LL	16bb-\LL	.
16d\	16aa\	.
16A\	16gg\	.
16d\JJ	16aa\JJ	.
*Xrep	*	*
!!LO:LB:g=original
=101	=101	=101
16G\LL	8bb-\L	.
16d\	.	.
16B-\	8gg\	.
16d\JJ	.	.
*rep	*	*
16G\LL	8bb-\	.
16d\	.	.
16B-\	8ddd\J	.
16d\JJ	.	.
*Xrep	*	*
=102	=102	=102
16A\LL	8.ddd\L	.
16d\	.	.
16F#X\	.	.
16d\JJ	16ccc\Jk	.
16G\LL	8bb-\	.
16d\	.	.
16B-\	8r	.
16d\JJ	.	.
=103	=103	=103
16G\LL	8.eee-\L	.
16e-\	.	.
16c\	.	.
16e-\JJ	16ccc\Jk	.
*rep	*	*
16G\LL	8aa\	.
16e-\	.	.
16c\	8r	.
16e-\JJ	.	.
*Xrep	*	*
=104	=104	=104
16G\LL	8.ddd\L	.
16d\	.	.
16B-\	.	.
16d\JJ	16bb-\Jk	.
*rep	*	*
16G\LL	8gg\	.
16d\	.	.
16B-\	8r	.
16d\JJ	.	.
*Xrep	*	*
=105	=105	=105
16A\LL	8ff#X\L	.
16d\	.	.
16F#X\	8gg\J	.
16d\JJ	.	.
16F#\LL	8cccL 8aa\	.
16d\	.	.
16G\	8bb-J 8gg\	.
16d\JJ	.	.
=	=	=
4D/	(>8bb-L 8gg\	.
.	8aaJ 8ff#X\)	.
=106:|!|:	=106:|!|:	=106:|!|:
.	8qqee-/	.
4r	8ff\L	.
.	8qqee-/	.
.	8ff\J	.
=107	=107	=107
.	32qqee-/LLL	.
.	32qqff/	.
.	32qqgg/JJJ	.
16BB-\LL	8.ff\L	.
16F\	.	.
16D\	.	.
16F\JJ	32gg\LL	.
.	32aa\JJJ	.
*rep	*	*
16BB-\LL	8bb-\L	.
16F\	.	.
16D\	8dd\J	.
16F\JJ	.	.
*Xrep	*	*
=108	=108	=108
16BB-\LL	(>4dd\	.
16G\	.	.
16E-\	.	.
16G\JJ	.	.
*rep	*	*
16BB-\LL	8cc\L)	.
16G\	.	.
16E-\	8dd\J	.
16G\JJ	.	.
*Xrep	*	*
=109	=109	=109
16AA\LL	8ee-\L	.
16F\	.	.
16C\	16ff\L	.
16F\JJ	16gg\JJ	.
*rep	*	*
16AA\LL	8ff\L	.
16F\	.	.
16C\	8ee-\J	.
16F\JJ	.	.
*Xrep	*	*
=110	=110	=110
.	8qqff/	.
16BB-\LL	4ee-T>\	.
16F\	.	.
16D\	.	.
16F\JJ	.	.
8BB-/	8dd\L	.
8r	8ff\J	.
=111	=111	=111
8d 8B-\	16bb-\LL	.
.	16aa\	.
8r	16gg\	.
.	16ff\JJ	.
8dL 8B-\	16een\LL	.
.	16ff\	.
8dJ 8B-\	16gg\	.
.	16ff\JJ	.
=112	=112	=112
8c\	16ee-X\LL	.
.	16dd\	.
8r	16cc\	.
.	16b-\JJ	.
8cL 8F\	16a/LL	.
.	16g/	.
8cJ 8F\	16f/	.
.	16en/JJ	.
!!LO:LB:g=original
=113	=113	=113
!	!LO:TX:a:t=P:problem=mixed beam	!
8B- 8BB-/	16d/LL	.
.	16ff\	.
8r	16gg\	.
.	16ff\JJ	.
8dL 8B-\	16bb-\LL	.
.	16aa\	.
8dJ 8B-\	16gg\	.
.	16ff\JJ	.
=114	=114	=114
8c\	16ee-\LL	.
.	16dd\	.
8r	16cc\	.
.	16b-\JJ	.
8cL 8F\	16a/LL	.
.	16g/	.
8cJ 8F\	16f/	.
.	16e-/JJ	.
=115	=115	=115
!LO:TX:a:t=P:problem=mixed beam	!	!
8BB-/L	8d'</	.
8B-\	4bb-\	.
8BB-/	.	.
8B-\J	[>8aa-X\	.
=116	=116	=116
8D\L	8aa-\]	.
8B-\	4gg\	.
8D\	.	.
8B-\J	8ff#X\	.
=117	=117	=117
8E-\L	8ff\L	.
8B-\	8gg\J	.
8E-\	4gg\	.
8B-\J	.	.
=118	=118	=118
8E-\L	16gg\LL	.
.	16aa\	.
8B-\J	16bb-\	.
.	16aa\JJ	.
8E-\L	16gg\LL	.
.	16ff\	.
8B-\J	16ee-\	.
.	16dd\JJ	.
=119	=119	=119
8E-\L	8dd\L	.
8G\	8cc\J	.
8E-\	4cc\	.
8G\J	.	.
=120	=120	=120
8E-\L	16cc\LL	.
.	16ee-\	.
8G\	16gg\	.
.	16ff\JJ	.
8E-\	16ee-\LL	.
.	16dd\	.
8G\J	16cc\	.
.	16b-\JJ	.
=121	=121	=121
8F\L	4a/	.
8F\	.	.
8C\	4ff 4cc 4a\	.
8AA\J	.	.
=122	=122	=122
4FF/	4ff 4cc 4a\	.
4r	16r	.
.	16f/LL	.
.	16a/	.
.	16cc/JJ	.
=123	=123	=123
*^	*	*
4r	2F\	16ee-\LL	.
.	.	16cc\	.
.	.	16a\	.
.	.	16f\JJ	.
8c/L	.	16e-/LL	.
.	.	16f/	.
8B-/J	.	16d/	.
.	.	16f/JJ	.
=124	=124	=124	=124
8A/L	2F\	16c/LL	.
.	.	16f/	.
8B-/	.	16d/	.
.	.	16f/JJ	.
8c/	.	16e-/LL	.
.	.	16f/	.
8A/J	.	16c/	.
.	.	16e-/JJ	.
*v	*v	*	*
!!LO:LB:g=original
=125	=125	=125
4B-\	16d/LL	.
.	16f/	.
.	16e-/	.
.	16d/JJ	.
4c\	16e-/LL	.
.	16f/	.
.	16g/	.
.	16a/JJ	.
=126	=126	=126
4d\	16b-\LL	.
.	16cc\	.
.	16dd\	.
.	16ee-\JJ	.
4r	16ff\LL	.
.	16dd\	.
.	16cc\	.
.	16b-\JJ	.
=127	=127	=127
*^	*	*
4r	2F\	16ee-\LL	.
.	.	16cc\	.
.	.	16a\	.
.	.	16f\JJ	.
8c/L	.	16e-/LL	.
.	.	16f/	.
8B-/J	.	16d/	.
.	.	16f/JJ	.
=128	=128	=128	=128
8A/L	2F\	16c/LL	.
.	.	16f/	.
8B-/J	.	16d/	.
.	.	16f/JJ	.
8c/L	.	16e-/LL	.
.	.	16f/	.
8A/J	.	16c/	.
.	.	16f/JJ	.
*v	*v	*	*
=129	=129	=129
4B-\	16d/LL	.
.	16f/	.
.	16e-/	.
.	16d/JJ	.
4c\	16e-/LL	.
.	16f/	.
.	16g/	.
.	16a/JJ	.
=130	=130	=130
4d\	16b-\LL	.
.	16cc\	.
.	16dd\	.
.	16ee-\JJ	.
8r	16ff\LL	.
.	16gg\	.
8d\	16aa\	.
.	16bb-\JJ	.
=131	=131	=131
8e-\L	16gg\LL	.
.	16aa\	.
8d\	16ff#X\	.
.	16aa\JJ	.
8e-\	16gg\LL	.
.	16aa\	.
8d\J	16ff#\	.
.	16aa\JJ	.
=132	=132	=132
4e-\	16gg\LL	.
.	16aa\	.
.	16bb-\	.
.	16aa\JJ	.
8r	16gg\LL	.
.	16ff\	.
8Bn\	16ee-\	.
.	16dd\JJ	.
=133	=133	=133
8c\L	16ee-\LL	.
.	16ff\	.
8B-\	16dd\	.
.	16ff\JJ	.
8c\	16ee-\LL	.
.	16ff\	.
8B-\J	16dd\	.
.	16ff\JJ	.
=134	=134	=134
4c\	16ee-\LL	.
.	16ff\	.
.	16gg\	.
.	16ff\JJ	.
8r	16ee-\LL	.
.	16dd\	.
8D\	16cc\	.
.	16bn\JJ	.
!!LO:PB:g=original
=135	=135	=135
8E-\L	16cc\LL	.
.	16dd\	.
8D\	16bn\	.
.	16dd\JJ	.
8E-\	16cc\LL	.
.	16dd\	.
8D\J	16b\	.
.	16dd\JJ	.
=136	=136	=136
4E-\	16cc\LL	.
.	16dd\	.
.	16ee-\	.
.	16cc\JJ	.
4F\	16a/LL	.
.	16f/	.
.	16cc/	.
.	16f/JJ	.
=137	=137	=137
4BB-/	16d/LL	.
.	16f/	.
.	16g/	.
.	16a/JJ	.
4r	16b-\LL	.
.	16cc\	.
.	16dd\	.
.	16ee-\JJ	.
=138	=138	=138
2r	(>8ff'>\L	.
.	8gg'>\	.
.	8aa'>\	.
.	8bb-\J)	.
=139	=139	=139
8r	8ff#X\L	.
8B-L 8E-\	8gg\J	.
8B- 8E-\	4gg\	.
8B-J 8E-\	.	.
=140	=140	=140
4B- 4E-\	8gg\L	.
.	16aa\L	.
.	16bb-\JJ	.
8r	16aa\LL	.
.	16gg\	.
8B- 8E-\	16ff\	.
.	16ee-\JJ	.
=141	=141	=141
8B-L 8G\	16dd\LL	.
.	16ff\	.
8B- 8G\	16gg\	.
.	16ff\JJ	.
8B- 8G\	16ee-\LL	.
.	16dd\	.
8B-J 8G\	16cc\	.
.	16b-\JJ	.
=142	=142	=142
*	*2\right	*
8AL 8F\	2ccT>\	.
8A 8F\	.	.
8A 8F\	.	.
8AJ 8F\	.	.
=143	=143	=143
!LO:TX:a:t=P:problem=mixed beam	!	!
8B-\L	8b-\	.
8BB-/J	8r	.
.	8qqcc#X/	.
4r	8dd\L	.
.	8qqcc#/	.
.	8dd\J	.
=144	=144	=144
16G\LL	4gg\	.
16d\	.	.
16B-\	.	.
16d\JJ	.	.
*rep	*	*
16G\LL	16aa\LL	.
16d\	16gg\	.
16B-\	16ff#X\	.
16d\JJ	16gg\JJ	.
*Xrep	*	*
=145	=145	=145
16F#X\LL	4aa\	.
16d\	.	.
16A\	.	.
16d\JJ	.	.
*rep	*	*
16F#\LL	16bb-\LL	.
16d\	16aa\	.
16A\	16gg\	.
16d\JJ	16aa\JJ	.
*Xrep	*	*
=146	=146	=146
16G\LL	8bb-\L	.
16d\	.	.
16B-\	8gg\	.
16d\JJ	.	.
*rep	*	*
16G\LL	8bb-\	.
16d\	.	.
16B-\	8ddd\J	.
16d\JJ	.	.
*Xrep	*	*
!!LO:LB:g=original
=147	=147	=147
16F#X\LL	8.ddd\L	.
16d\	.	.
16A\	.	.
16d\JJ	16ccc\Jk	.
16G\LL	8bb-\	.
16d\	.	.
16B-\	8r	.
16d\JJ	.	.
=148	=148	=148
16A\LL	8.eee-\L	.
16e-\	.	.
16c\	.	.
16e-\JJ	16ccc\Jk	.
*rep	*	*
16A\LL	8aa\	.
16e-\	.	.
16c\	8r	.
16e-\JJ	.	.
*Xrep	*	*
=149	=149	=149
16G\LL	8.ddd\L	.
16d\	.	.
16B-\	.	.
16d\JJ	16bb-\Jk	.
*rep	*	*
16G\LL	8gg\	.
16d\	.	.
16B-\	8r	.
16d\JJ	.	.
*Xrep	*	*
=150	=150	=150
16A\LL	8ff#X\L	.
16d\	.	.
16G\	8gg\	.
16d\JJ	.	.
16F#X\LL	8ccc\ 8aa	.
16d\	.	.
16G\	8ddd\ 8aaJ	.
16d\JJ	.	.
=151	=151	=151
4D\	8bb-L 8gg\	.
.	8aaJ 8ff\	.
.	8qqcc#X/	.
4r	8dd\L	.
.	8qqcc#/	.
.	8dd\J	.
=152	=152	=152
16G\LL	4gg\	.
16d\	.	.
16B-\	.	.
16d\JJ	.	.
*rep	*	*
16G\LL	16aa\LL	.
16d\	16gg\	.
16B-\	16ff#X\	.
16d\JJ	16gg\JJ	.
*Xrep	*	*
=153	=153	=153
16F#X\LL	4aa\	.
16d\	.	.
16A\	.	.
16d\JJ	.	.
*rep	*	*
16F#\LL	16bb-\LL	.
16d\	16aa\	.
16A\	16gg\	.
16d\JJ	16aa\JJ	.
*Xrep	*	*
=154	=154	=154
16G\LL	8bb-\L	.
16d\	.	.
16B-\	8gg\	.
16d\JJ	.	.
*rep	*	*
16G\LL	8bb-\	.
16d\	.	.
16B-\	8ddd\J	.
16d\JJ	.	.
*Xrep	*	*
=155	=155	=155
16F#X\LL	8.ddd\L	.
16d\	.	.
16A\	.	.
16d\JJ	16ccc\Jk	.
16G\LL	8bb-\	.
16d\	.	.
16B-\	8r	.
16d\JJ	.	.
=156	=156	=156
16G\LL	8.eee-\L	.
16e-\	.	.
16c\	.	.
16e-\JJ	16ccc\Jk	.
16G\LL	8aa\	.
16e-\	.	.
16c\	8r	.
16e-\JJ	.	.
=157	=157	=157
16G\LL	8.ddd\L	.
16d\	.	.
16B-\	.	.
16d\JJ	16bb-\Jk	.
*rep	*	*
16G\LL	8gg\	.
16d\	.	.
16B-\	8r	.
16d\JJ	.	.
*Xrep	*	*
!!LO:LB:g=original
=158	=158	=158
8r	4gg\	.
8GL 8E-\	.	.
8G 8E-\	16ff\LL	.
.	16ee-\	.
8GJ 8E-\	16dd\	.
!	!LO:TX:a:t=P:problem=# above	!
.	16cc#X\JJ	.
=159	=159	=159
*^	*	*
8F#X/L	[<2D\	8dd\L	.
8d/	.	16ff#X\L	.
.	.	16dd\JJ	.
8c#X/	.	16gg\LL	.
.	.	16dd\	.
8cn/J	.	16aa\	.
.	.	16dd\JJ	.
=160	=160	=160	=160
8B-/L	2D\]	16bb-\LL	.
.	.	16dd\	.
8G#X/J	.	16bbn\	.
.	.	16dd\JJ	.
8A/L	.	16ccc\LL	.
.	.	16dd\	.
8Gn/J	.	16ccc#X\	.
.	.	16dd\JJ	.
=161	=161	=161	=161
8F#X/L	2D\	16ddd\LL	.
.	.	16dd\	.
8F#/	.	16ddd\	.
.	.	16dd\JJ	.
8G/	.	16ccc#X\LL	.
.	.	16dd\	.
8A/J	.	16cccn\	.
.	.	16dd\JJ	.
=162	=162	=162	=162
8B-/L	2D\	16bb-\LL	.
.	.	16dd\	.
8Bn/	.	16gg#X\	.
.	.	16dd\JJ	.
8c/	.	16aa\LL	.
.	.	16dd\	.
8c#X/J	.	16ggn\	.
.	.	16dd\JJ	.
*v	*v	*	*
=163	=163	=163
8d 8D\	16ff#X\LL	.
.	16dd\	.
8r	16ff#\	.
.	16aa\JJ	.
8A 8F#X 8D\	16ddd\LL	.
.	16dd\	.
8r	16ff#\	.
.	16aa\JJ	.
=164	=164	=164
!LO:SIC:s=4A 4F# 4D	!	!
4A 4F 4D;>\	4ddd;>\	.
4r	16r	.
.	16a/LL	.
.	16b-/	.
.	16dd/JJ	.
=165	=165	=165
*clefG2	*	*
4f 4d/	16ff\LL	.
.	16dd\J	.
.	8b-\J	.
4g 4e-/	16gg\LL	.
.	16ee-\J	.
.	8b-\J	.
=166	=166	=166
4f 4d 4B-/	16ff\LL	.
.	16dd\J	.
.	8b-\J	.
*clefF4	*	*
8r	16bb-\LL	.
.	16aa\	.
8B-\ 8D\	16gg\	.
.	16ff\JJ	.
=167	=167	=167
*^	*	*
8B-\ 8C\L	4ryy	16een\LL	.
.	.	16ff\	.
8AJ 8F\	.	16ee-X\	.
.	.	16dd\JJ	.
4B-/	8BB-\L	16ee-\LL	.
.	.	16dd\	.
.	8D\J	16cc\	.
.	.	16b-\JJ	.
*v	*v	*	*
!!LO:LB:g=original
=168	=168	=168
4A 4F\	16cc/LL	.
.	16a/	.
.	16f/JJ	.
!	!LO:N:vis=16	!
.	8r	.
4r	.	.
.	16a\LL	.
.	16b-\	.
.	16dd\JJ	.
=169	=169	=169
*^	*	*
*clefG2	*	*	*
4f 4d/	2B-\	16ff\LL	.
.	.	16dd\J	.
.	.	8b-\J	.
4g 4e-/	.	16gg\LL	.
.	.	16ee-\J	.
.	.	8b-\J	.
*v	*v	*	*
=170	=170	=170
4f/ 4d/ 4B-/	16ff\LL	.
.	16dd\J	.
.	8b-\J	.
*clefF4	*	*
8r	16dd\LL	.
.	16ff\	.
8F 8BB-\	16bb-\	.
.	16ddd\JJ	.
=171	=171	=171
8.F\L 8.AA\	(>16ccc\LL	.
.	16aa\J)	.
.	8ff\J|	.
16F\Jk 16AA\	.	.
8.GL 8.C\	(>16bb-\LL	.
.	16gg\J)	.
.	8een\J|	.
16GJk 16C\	.	.
=172	=172	=172
4A 4F\	4ff\	.
4r	16r	.
.	16en/LL	.
.	16f/	.
.	16a/JJ	.
=173	=173	=173
*^	*	*
4c 4A/	2F\	(<16cc/LL	.
.	.	16a/J)	.
.	.	8f/J|	.
4d 4B-/	.	(<16dd/LL	.
.	.	16b-/J)	.
.	.	8f/J|	.
*v	*v	*	*
=174	=174	=174
4e- 4c\ 4F\	(>16ee-\LL	.
.	16cc\J)	.
.	8a\J|	.
4c 4A\ 4F\	(>16gg\LL	.
.	16ee-\J)	.
.	8cc\J|	.
=175	=175	=175
*^	*	*
4d\ 4B-\ 4F\	4ryy	(>16dd\LL	.
.	.	16ff\J)	.
.	.	8b-\J	.
4c 4B- 4G/	4F\	(>16bb-\LL	.
.	.	16gg\J)	.
.	.	8een\J|	.
*v	*v	*	*
=176	=176	=176
4c\ 4A\ 4F\	4ff\	.
4r	16ff\	.
.	16a/LL	.
.	16b-/	.
.	16dd/JJ	.
=177	=177	=177
*clefG2	*	*
4f 4d 4B-/	16ff\LL	.
.	16dd\J	.
.	8b-\J	.
4g 4e-/	16gg\LL	.
.	16ee-\J	.
.	8b-\J	.
=178	=178	=178
4f/ 4d/ 4B-/	(>16ff\LL	.
.	16dd\J)	.
.	8b-\J|	.
*clefF4	*	*
8.B-L 8.F 8.D\	(>16bb-\LL	.
.	16ff\J)	.
.	8dd\J|	.
16B-Jk 16F 16D\	.	.
!!LO:LB:g=original
=179	=179	=179
8.c\L 8.G\ 8.E-\	16cc\LL	.
.	16ee-\J	.
.	8gg\J	.
16c\Jk 16G\ 16E-\	.	.
8.e-L 8.c 8.F\	16f/LL	.
.	16a/J	.
.	8cc/J	.
16e-Jk 16c 16F\	.	.
=180	=180	=180
4d 4B-\	4b-\	.
4r	16r	.
.	16a/LL	.
.	16b-/	.
.	16dd/JJ	.
=181	=181	=181
16BB-\LL	16ff\LL	.
16D\	16dd\	.
16F\	16b-\	.
16B-\JJ	16f\JJ	.
16BB-\LL	16gg\LL	.
16E-\	16ee-\	.
16G\	16b-\	.
16B-\JJ	16g\JJ	.
=182	=182	=182
4BB-/	16ff\LL	.
.	16dd\	.
.	16b-\	.
.	16f\JJ	.
4r	16d/LL	.
.	16f/	.
.	16b-/	.
.	16dd/JJ	.
=183	=183	=183
16BB-\LL	16ff\LL	.
16D\	16dd\	.
16F\	16b-\	.
16B-\JJ	16f\JJ	.
16BB-\LL	16gg\LL	.
16E-\	16ee-\	.
16G\	16b-\	.
16B-\JJ	16g\JJ	.
=184	=184	=184
4BB-/	16ff\LL	.
.	16dd\	.
.	16b-\	.
.	16f\JJ	.
16r	16d/	.
16B-\LL	8r	.
16d\	.	.
16f\JJ	16r	.
=185	=185	=185
16e-\LL	8r	.
16d\	.	.
16c\	8ff\L	.
16B-\JJ	.	.
16A\LL	8ff\	.
16G\	.	.
16F\	8ff\J	.
16E-\JJ	.	.
=186	=186	=186
16D\LL	8bb-\L	.
16E-\	.	.
16F\	8ff\J	.
16G\JJ	.	.
16A\LL	8r	.
16B-\	.	.
16c\	8ff\	.
16d\JJ	.	.
=187	=187	=187
16e-\LL	8ff\L	.
16d\	.	.
16c\	8ff\	.
16B-\JJ	.	.
16A\LL	8ff\	.
16G\	.	.
16F\	8ff\J	.
16E-\JJ	.	.
=188	=188	=188
16D\LL	8bb-\L	.
16E-\	.	.
16F\	8ff\J	.
16G\JJ	.	.
16A\LL	8r	.
16B-\	.	.
16c\	8bb-\	.
16d\JJ	.	.
=189	=189	=189
16e-\LL	8gg\L	.
16B-\	.	.
16e-\	8gg\	.
16B-\JJ	.	.
*rep	*	*
16e-\LL	8gg\	.
16B-\	.	.
16e-\	8bb-\J	.
16B-\JJ	.	.
*Xrep	*	*
!!LO:PB:g=original
=190	=190	=190
16d\LL	8ff\L	.
16B-\	.	.
16d\	8ff\	.
16B-\JJ	.	.
*rep	*	*
16d\LL	8ff\	.
16B-\	.	.
16d\	(>8bb-\J	.
16B-\JJ	.	.
*Xrep	*	*
=191	=191	=191
16e-\LL	8gg\L)	.
16B-\	.	.
16e-\	8gg\	.
16B-\JJ	.	.
*rep	*	*
16e-\LL	8gg\	.
16B-\	.	.
16e-\	(>8bb-\J	.
16B-\JJ	.	.
*Xrep	*	*
=192	=192	=192
16d\LL	8ff\L)	.
16B-\	.	.
16d\	8ff\	.
16B-\JJ	.	.
*rep	*	*
16d\LL	8ff\	.
16B-\	.	.
16d\	(>8bb-\J	.
16B-\JJ	.	.
*Xrep	*	*
=193	=193	=193
16G\LL	8een\L)	.
16B-\	.	.
16d-X\	8ee\	.
16B-\JJ	.	.
*rep	*	*
16G\LL	8ee\	.
16B-\	.	.
16d-\	8ee\J	.
16B-\JJ	.	.
*Xrep	*	*
=194	=194	=194
*rep	*	*
16G\LL	4.ee-\	.
16B-\	.	.
16d-X\	.	.
16B-\JJ	.	.
*Xrep	*	*
*rep	*	*
16G\LL	.	.
16B-\	.	.
16d-\	8ee-\	.
16B-\JJ	.	.
*Xrep	*	*
=195	=195	=195
16A\LL	8ff\L	.
16c\	.	.
16f\	8ee-X\	.
16c\JJ	.	.
*rep	*	*
16A\LL	8ee-\	.
16c\	.	.
16f\	8ee-\J	.
16c\JJ	.	.
*Xrep	*	*
=196	=196	=196
16A\LL	4.ee-\	.
16c\	.	.
16f\	.	.
16c\JJ	.	.
*rep	*	*
16A\LL	.	.
16c\	.	.
16f\	8ee-\	.
16c\JJ	.	.
*Xrep	*	*
=197	=197	=197
*^	*	*
8r	[>2B-\	16dd\LL	.
.	.	16bb-\	.
8g/L	.	16ddd\	.
.	.	16bb-\JJ	.
8f/	.	16aa\LL	.
.	.	16bb-\	.
8e-/J	.	16aa\	.
.	.	16bb-\JJ	.
=198	=198	=198	=198
8d/L	2B-\_>	16ff\LL	.
.	.	16bb-\	.
8g/J	.	16ddd\	.
.	.	16bb-\JJ	.
8f/L	.	16aa\LL	.
.	.	16bb-\	.
8e-/J	.	16gg\	.
.	.	16bb-\JJ	.
=199	=199	=199	=199
8d/L	2B-\_>	16ff\LL	.
.	.	16bb-\	.
8g/	.	16ddd\	.
.	.	16bb-\JJ	.
8f/	.	16aa\LL	.
.	.	16bb-\	.
8e-/J	.	16gg\	.
.	.	16bb-\JJ	.
=200	=200	=200	=200
8d/L	2B-\]	16ff\LL	.
.	.	16bb-\	.
8e-/	.	16gg\	.
.	.	16bb-\JJ	.
8d/	.	16ff\LL	.
.	.	16bb-\	.
8e-/J	.	16gg\	.
.	.	16bb-\JJ	.
*v	*v	*	*
!!LO:LB:g=original
=201	=201	=201
4d 4B-\	4ff\	.
4r	4r	.
=202	=202	=202
4D 4DD/	4aa-X 4ff 4b-\	.
4r	4r	.
=203	=203	=203
4E- 4EE-/	4gg 4ee- 4b-\	.
4r	4r	.
=204	=204	=204
4En 4EE-/	4bb- 4dd-X 4b-\	.
4r	4r	.
=205	=205	=205
!	!	!LO:HP:a:i:t=p:
!	!	!LO:DY:a:rj
4F 4FF/	4.f/	p
4r	.	.
.	16g/LL	.
.	16a/JJ	.
=206	=206	=206
2r	8b-/L	.
.	8b-/	.
.	8b-/	.
.	8b-/J	.
=207	=207	=207
2r	(<8a/L	.
.	8cc/)	.
.	8a'</	.
.	8f'</J	.
=208	=208	=208
2r	(<8a/L	.
.	8cc/)	.
.	8a'</	.
.	8f'</J	.
=209	=209	=209
4.F\	4dd\	.
.	[>4dd\	.
16G\LL	.	.
16A\JJ	.	.
=210	=210	=210
8B-\L	8dd\L]	.
8B-\	8dd\	.
8B-\	8dd\	.
8B-\J	8dd\J	.
=211	=211	=211
8A\L	8cc\L	.
8c\	8ee-\	.
8A\	8cc\	.
8F\J	8a\J	.
=212	=212	=212
8A\L	8cc\L	.
8c\	8ee-\	.
8A\	8cc\	.
8F\J	8a\J	.
=213	=213	=213
4.FF/	16ffLL 16dd\	.
.	16f\	.
.	16ff 16dd\	.
.	16f\JJ	.
.	16ffLL 16dd\	.
.	16f\	.
16GG/LL	16ff 16dd\	.
16BB-/JJ	16f\JJ	.
=214	=214	=214
8BB-/L	16ffLL 16dd\	.
.	16f\	.
8BB-/	16ff 16dd\	.
.	16f\JJ	.
*	*rep	*
8BB-/	16ffLL 16dd\	.
.	16f\	.
8BB-/J	16ff 16dd\	.
.	16f\JJ	.
*	*Xrep	*
!!LO:LB:g=original
=215	=215	=215
8AA/L	16ffLL 16ee-\	.
.	16f\	.
8C/J	16ff 16ee-\	.
.	16f\JJ	.
8AA/L	16ffLL 16ee-\	.
.	16f\	.
8FF/J	16ff 16ee-\	.
.	16f\JJ	.
=216	=216	=216
8AA/L	16ffLL 16ee-\	.
.	16f\	.
8C/	16ff 16ee-\	.
.	16f\JJ	.
8AA/	16ffLL 16ee-\	.
.	16f\	.
8FF/J	16ff 16ee-\	.
.	16f\JJ	.
=217	=217	=217
4.BB-/	16ffLL 16dd\	.
.	16f\	.
.	16ff 16dd\	.
.	16f\JJ	.
.	16ffLL 16dd\	.
.	16f\	.
16BB-/LL	16ff 16dd\	.
16C/JJ	16f\JJ	.
=218	=218	=218
8D/L	16ffLL 16b-\	.
.	16f\	.
8D/	16ff 16b-\	.
.	16f\JJ	.
8D/	16ffLL 16b-\	.
.	16f\	.
8D/J	16ff 16b-\	.
.	16f\JJ	.
=219	=219	=219
8C/L	16ffLL 16a\	.
.	16f\	.
8E-/	16ff 16a\	.
.	16f\JJ	.
8C/	16ffLL 16a\	.
.	16f\	.
8FF/J	16ff 16a\	.
.	16f\JJ	.
=220	=220	=220
8C/L	16ffLL 16a\	.
.	16f\	.
8E-/	16ff 16a\	.
.	16f\JJ	.
8C/	16ffLL 16a\	.
.	16f\	.
8FF/J	16ff 16a\	.
.	16f\JJ	.
=221	=221	=221
4D 4DD/	16ff\LL	.
.	16b-\	.
.	16a\	.
.	16b-\JJ	.
8D\L	16ff\LL	.
.	16b-\	.
8E-\J	16gg\	.
.	16b-\JJ	.
=222	=222	=222
4D\	16ff\LL	.
.	16b-\	.
.	16a\	.
.	16b-\JJ	.
8D\L	16ff\LL	.
.	16b-\	.
8E-\J	16gg\	.
.	16b-\JJ	.
=223	=223	=223
4D/	16ff\LL	.
.	16bb-\	.
.	16ddd\	.
.	16ccc\JJ	.
4d\	16bb-\LL	.
.	16aa\	.
.	16gg\	.
.	16ff\JJ	.
=224	=224	=224
4c\	16ee-\LL	.
.	16ff\	.
.	16gg\	.
.	16ff\JJ	.
4r	16ee-\LL	.
.	16dd\	.
.	16cc\	.
.	16b-\JJ	.
!!LO:LB:g=original
=225	=225	=225
4F\	16a\LL	.
.	16aa\	.
.	16ccc\	.
.	16bb-\JJ	.
4A\	16aa\LL	.
.	16gg\	.
.	16ff\	.
.	16ee-\JJ	.
=226	=226	=226
4B-\	16dd\LL	.
.	16ee-\	.
.	16ff\	.
.	16ee-\JJ	.
4r	16dd\LL	.
.	16cc\	.
.	16b-\	.
.	16a\JJ	.
=227	=227	=227
4EE-/	16g\LL	.
.	16ee-\	.
.	16gg\	.
.	16ff\JJ	.
4E-\	16ee-\LL	.
.	16dd\	.
.	16cc\	.
.	16b-\JJ	.
=228	=228	=228
4F\	16a\LL	.
.	16b-\	.
.	16cc\	.
.	16b-\JJ	.
4r	16a/LL	.
.	16g/	.
.	16f/	.
.	16e-/JJ	.
=229	=229	=229
16D\LL	16d/LL	.
16E-\	16e-/	.
16F\	16f/	.
16E-\JJ	16e-/JJ	.
16D/LL	16d/LL	.
16C/	16c/	.
16BB-/	16B-/	.
16AA/JJ	16A/JJ	.
=230	=230	=230
16GG\LL	16G/LL	.
16E-\	16e-/	.
16G\	16g/	.
16F\JJ	16f/JJ	.
16E-\LL	16e-/LL	.
16D\	16d/	.
16C\	16c/	.
16BB-\JJ	16B-/JJ	.
=231	=231	=231
16AA\LL	16A/LL	.
16F\	16f/	.
16A\	16a/	.
16G\JJ	16g/JJ	.
16F\LL	16f/LL	.
16E-\	16e-/	.
16D\	16d/	.
16C\JJ	16c/JJ	.
=232	=232	=232
16BB-\LL	16B-/LL	.
16G\	16g/	.
16B-\	16b-/	.
16A\JJ	16a/JJ	.
16G\LL	16g/LL	.
16F\	16f/	.
16E-\	16e-/	.
16D\JJ	16d/JJ	.
=233	=233	=233
16C\LL	16c/LL	.
16A\	16a/	.
16c\	16cc/	.
16B-\JJ	16b-/JJ	.
16A\LL	16a/LL	.
16G\	16g/	.
16F\	16f/	.
16E-\JJ	16e-/JJ	.
=234	=234	=234
4D\	16d/LL	.
.	16b-/	.
.	16a/	.
.	16b-/JJ	.
!	!LO:TX:a:t=P:problem=mixed beam	!
8r	16bb-\LL	.
.	16b-/	.
8B- 8F 8D\	16a/	.
.	16b-/JJ	.
!!LO:LB:g=original
=235	=235	=235
4B- 4G 4E-\	16g/LL	.
.	16b-/	.
.	16a/	.
.	16b-/JJ	.
!	!LO:TX:a:t=P:problem=mixed beam	!
8r	16bb-\LL	.
.	16b-/	.
8B- 8G 8E-\	16a/	.
.	16b-/JJ	.
=236	=236	=236
4d 4B- 4F\	16f/LL	.
.	16b-/	.
.	16a/	.
.	16b-/JJ	.
!	!LO:TX:a:t=P:problem=mixed beam	!
8r	16bb-\LL	.
.	16b-/	.
8d 8B- 8F\	16a/	.
.	16b-/JJ	.
=237	=237	=237
4d 4B-X 4G\	16en/LL	.
.	16b-/	.
.	16a/	.
.	16b-/JJ	.
!	!LO:TX:a:t=P:problem=mixed beam	!
8r	16bb-\LL	.
.	16b-/	.
8d 8B- 8G\	16a/	.
.	16b-/JJ	.
=238	=238	=238
!	!LO:TX:a:t=P:problem=mixed beam	!
4d-X 4B- 4G 4En\	16bb-\LL	.
.	16b-/	.
.	16a/	.
.	16b-/JJ	.
!	!LO:TX:a:t=P:problem=mixed beam	!
8r	16bb-\LL	.
.	16b-/	.
8d- 8B- 8G 8E\	16a/	.
.	16b-/JJ	.
=239	=239	=239
*^	*	*
8c/L	4F\	16aa\LL	.
.	.	16bb-\	.
8B-/J	.	16gg\	.
.	.	16aa\JJ	.
8A/L	4F\	16ff\LL	.
.	.	16gg\	.
8A/J	.	16ee-\	.
.	.	16ff\JJ	.
=240	=240	=240	=240
8B-/L	[<2F\	16dd\LL	.
.	.	16ee-\	.
8c/	.	16cc\	.
.	.	16dd\JJ	.
8d/	.	16b-\LL	.
.	.	16dd\	.
8d/J	.	16ff\	.
.	.	16bb-\JJ	.
=241	=241	=241	=241
8c/L	2F\_<	16aa\LL	.
.	.	16bb-\	.
8B-/	.	16gg\	.
.	.	16aa\JJ	.
8A/	.	16ff\LL	.
.	.	16gg\	.
8A/J	.	16ee-\	.
.	.	16ff\JJ	.
=242	=242	=242	=242
8B-/L	2F\_<	16dd\LL	.
.	.	16ee-\	.
8c/	.	16cc\	.
.	.	16dd\JJ	.
8d/	.	16b-\LL	.
.	.	16dd\	.
8d/J	.	16ff\	.
.	.	16bb-\JJ	.
=243	=243	=243	=243
8c/L	2F\_	16aa\LL	.
.	.	16bb-\	.
8B-/	.	16gg\	.
.	.	16aa\JJ	.
8A/	.	16ff\LL	.
.	.	16gg\	.
8G/J	.	16een\	.
.	.	16gg\JJ	.
*v	*v	*	*
!!LO:PB:g=original
=244	=244	=244
8A 8F\]	(>16een\LL	.
.	16ff\JJ)	.
8r	8r	.
8g\	(>16ff\LL	.
.	16ee-X\JJ)	.
8r	8r	.
=245	=245	=245
8f\	16ee-\LL	.
.	16dd\JJ	.
8r	8r	.
8en\	(>16dd\LL	.
.	16cc#X\JJ)	.
8r	8r	.
=246	=246	=246
8f\	(>16cc#X\LL	.
.	16dd\JJ)	.
8r	8r	.
8e-X 8c\	(>16dd\LL	.
.	16ccn\JJ)	.
8r	8r	.
=247	=247	=247
8d\	(>16cc\LL	.
.	16b-\JJ)	.
8r	8r	.
8c\	16b-\LL	.
.	16a\JJ	.
8r	8r	.
=248	=248	=248
8r	2b- 2d/	.
8G\L	.	.
8A-X\	.	.
8G\J	.	.
=249	=249	=249
*	*^	*
8F\L	2bn/	2g#X\ 2d\	.
8E-\	.	.	.
8D\	.	.	.
8F\J	.	.	.
*	*v	*v	*
=250	=250	=250
!	!	!LO:HP:a:i:t=f:
!	!	!LO:DY:a:rj
8E-\L	8ccL 8g 8e-/	f
8F\	8bn 8g 8e- 8d/	.
8E-\	8cc 8g 8e-/	.
8BBn\J	8ddJ 8g 8f/	.
=251	=251	=251
8C\L	8ee-L 8g 8e-/	.
8D\	8bn 8g 8e-/	.
8E-\	8cc 8g 8e-/	.
8C\J	8ee-J 8cc 8g/	.
=252	=252	=252
4F\	16dd\LL	.
.	16b-\	.
.	16f\	.
.	16b-\JJ	.
8r	16dd\LL	.
.	16b-\	.
8En\	16cc#X\	.
.	16b-\JJ	.
=253	=253	=253
4F\	16dd\LL	.
.	16b-\	.
.	16f\	.
.	16b-\JJ	.
8r	16dd\LL	.
.	16b-\	.
8E-\	16cc#X\	.
.	16b-\JJ	.
!!LO:LB:g=original
=254	=254	=254
4F\	16dd\LL	.
.	16b-\	.
.	16f\	.
.	16b-\JJ	.
8r	16dd\LL	.
.	16b-\	.
8En\	16cc#X\	.
.	16a\JJ	.
=255	=255	=255
8F\L	16dd\LL	.
.	16b-\	.
8En\J	16f\	.
.	16b-\JJ	.
8F\L	16dd\LL	.
.	16b-\	.
8En\J	16cc#X\	.
.	16b-\JJ	.
!	!LO:TX:a:t=P:problem=skreślony takt po tym takcie	!
=256	=256	=256
4F\	16dd\LL	.
.	16b-\	.
.	16cc#X\	.
.	16dd\JJ	.
4r	16ee-\LL	.
.	16ff\	.
.	16gg\	.
.	16aa\JJ	.
=257	=257	=257
2r	16bb-\LL	.
.	16dd\	.
.	16ee-\	.
.	16ff\JJ	.
.	16gg\LL	.
.	16aa\	.
.	16bb-\	.
.	16ccc\JJ	.
=258	=258	=258
2r	16ddd\LL	.
.	16ff\	.
.	16gg\	.
.	16aa\JJ	.
.	16bb-\LL	.
.	16ccc\	.
.	16ddd\	.
.	16eee-\JJ	.
=259	=259	=259
2r	8fff\L	.
.	8ddd\	.
.	8bb-\	.
.	8ff\J	.
=260	=260	=260
2r	8dd\L	.
.	8ff\	.
.	8dd\	.
.	8b-\J	.
=261	=261	=261
16F\LL	2f/	.
16d\	.	.
16B-\	.	.
16d\JJ	.	.
*rep	*	*
16F\LL	.	.
16d\	.	.
16B-\	.	.
16d\JJ	.	.
*Xrep	*	*
=262	=262	=262
16F\LL	2cc\	.
16e-\	.	.
16A\	.	.
16e-\JJ	.	.
*rep	*	*
16F\LL	.	.
16e-\	.	.
16A\	.	.
16e-\JJ	.	.
*Xrep	*	*
=263	=263	=263
4d 4B-\	4b-\	.
4r	16r	.
.	16a\LL	.
.	16b-\	.
.	16dd\JJ	.
!!LO:LB:g=original
=264	=264	=264
16D\LL	(>16ff\LL	.
16F\J	16dd\J)	.
8B-\J	8b-\J|	.
16E-\LL	(>16gg\LL	.
16G\J	16ee-\J)	.
8B-\J	8b-\J|	.
=265	=265	=265
16D\LL	(>16ff\LL	.
16F\J	16dd\J)	.
8B-\J	8b-\J|	.
8BB-/	16r	.
.	16a\LL	.
8r	16b-\	.
.	16dd\JJ	.
=266	=266	=266
(>16D\LL	16ff\LL	.
16F\J	16dd\J	.
8B-\J)	8b-\J	.
(>16E-\LL	(>16gg\LL	.
16G\J)	16ee-\J)	.
8B-\J|	8b-\J|	.
=267	=267	=267
16D\LL	(>16ff\LL	.
16F\J	16dd\J)	.
8B-\J	8b-\J|	.
8BB-/	16r	.
.	16dd\LL	.
8r	16ee-\	.
.	16ff\JJ	.
=268	=268	=268
4c 4A 4F\	16ee-\LL	.
.	16dd\	.
.	16cc\	.
.	16b-\JJ	.
8cL 8A 8F\	16a/LL	.
.	16g/	.
8cJ 8A 8F\	16f/	.
.	16e-/JJ	.
=269	=269	=269
4B- 4BB-\	16d/LL	.
.	16e-/	.
.	16f/	.
.	16g/JJ	.
4r	16a\LL	.
.	16b-\	.
.	16cc\	.
.	16dd\JJ	.
=270	=270	=270
4c 4A 4F\	16ee-\LL	.
.	16dd\	.
.	16cc\	.
.	16b-\JJ	.
8cL 8A 8F\	16a/LL	.
.	16g/	.
8cJ 8A 8F\	16f/	.
.	16e-/JJ	.
=271	=271	=271
4B- 4BB-\	16d/LL	.
.	16f/	.
.	16b-/	.
.	16f/JJ	.
4r	16dd\LL	.
.	16b-\	.
.	16ff\	.
.	16dd\JJ	.
=272	=272	=272
.	8qqcc/	.
16G\LL	8bn/L	.
16f\	.	.
16d\	8b/	.
16f\JJ	.	.
*rep	*	*
16G\LL	8b/	.
16f\	.	.
16d\	8b/J	.
16f\JJ	.	.
*Xrep	*	*
=273	=273	=273
4e- 4c\	16cc\LL	.
.	16g\	.
.	16cc\	.
.	16ee-\JJ	.
4r	16gg\LL	.
.	16ee-\	.
.	16dd\	.
.	16cc\JJ	.
!!LO:LB:g=original
=274	=274	=274
16F\LL	8an/L	.
16e-\	.	.
16c\	8a/	.
16e-\JJ	.	.
*rep	*	*
16F\LL	8a/	.
16e-\	.	.
16c\	8a/J	.
16e-\JJ	.	.
*Xrep	*	*
=275	=275	=275
8d 8B-\	16b-\LL	.
.	16dd\	.
8r	16ff\	.
.	16dd\JJ	.
8E- 8EE-/	16b-\LL	.
.	16ee-\	.
8r	16gg\	.
.	16ee-\JJ	.
=276	=276	=276
8F 8FF/	16b-\LL	.
.	16dd\	.
8r	16ff\	.
.	16dd\JJ	.
8F 8FF/	16cc\LL	.
.	16ee-\	.
8r	16aa\	.
.	16ee-\JJ	.
=277	=277	=277
16r	4bb- 4dd 4b-\	.
16BB-/LL	.	.
16D/	.	.
16F/JJ	.	.
16B-\LL	8r	.
16d\	.	.
16e-\	8ff\	.
16f\JJ	.	.
=278	=278	=278
16e-\LL	8ff\L	.
16d\	.	.
16c\	8ff\	.
16B-\JJ	.	.
16A\LL	8ff\	.
16G\	.	.
16F\	8ff\J	.
16E-\JJ	.	.
=279	=279	=279
16D\LL	8bb-\L	.
16E-\	.	.
16F\	8ff\J	.
16G\JJ	.	.
16A\LL	8r	.
16B-\	.	.
16c\	8ff\	.
16d\JJ	.	.
=280	=280	=280
16e-\LL	8ff\L	.
16d\	.	.
16c\	8ff\	.
16B-\JJ	.	.
16A\LL	8ff\	.
16G\	.	.
16F\	8ff\J	.
16E-\JJ	.	.
=281	=281	=281
4D\	16bb-\LL	.
.	16ccc\	.
.	16ddd\	.
.	16eee-\JJ	.
4r	16fff\LL	.
.	16eee-\	.
.	16ddd\	.
.	16ccc\JJ	.
=282	=282	=282
16G\LL	8bbn\L	.
16f\	.	.
16d\	8bb\	.
16f\JJ	.	.
*rep	*	*
16G\LL	8bb\	.
16f\	.	.
16d\	8bb\J	.
16f\JJ	.	.
*Xrep	*	*
=283	=283	=283
.	8qqddd/	.
4e- 4c\	16ccc\LL	.
.	16bbn\	.
.	16ccc\	.
.	16ddd\JJ	.
4r	16eee-\LL	.
.	16ddd\	.
.	16ccc\	.
.	16bb\JJ	.
!!LO:PB:g=original
=284	=284	=284
16F\LL	8aa\L	.
16e-\	.	.
16c\	8aa\	.
16e-\JJ	.	.
*rep	*	*
16F\LL	8aa\	.
16e-\	.	.
16c\	8aa\J	.
16e-\JJ	.	.
*Xrep	*	*
=285	=285	=285
8d 8B-\	8bb-\L	.
8r	8bb-\J	.
8E-\	8r	.
8r	8gg 8ee-\	.
=286	=286	=286
8F\	8ff 8dd\	.
8r	8r	.
8FF/	8a 8e-/	.
8r	8r	.
=287	=287	=287
16BBB-/LL	16r	.
16BB-/	16b-\LL	.
16BBB-/	16gg 16ee-\	.
16BB-/JJ	16b-\JJ	.
*rep	*	*
16BBB-/LL	16ffLL 16dd\	.
16BB-/	16b-\	.
16BBB-/	16gg 16ee-\	.
16BB-/JJ	16b-\JJ	.
*Xrep	*	*
=288	=288	=288
*rep	*	*
16BBB-/LL	16ffLL 16dd\	.
16BB-/	16b-\	.
16BBB-/	16gg 16ee-\	.
16BB-/JJ	16b-\JJ	.
*Xrep	*	*
*rep	*	*
16BBB-/LL	16ffLL 16dd\	.
16BB-/	16b-\	.
16BBB-/	16gg 16ee-\	.
16BB-/JJ	16b-\JJ	.
*Xrep	*	*
=289	=289	=289
8BBB-/	8ffL 8dd\	.
8r	8ffJ 8dd\	.
8G\	8r	.
8r	8dd 8b-\	.
=290	=290	=290
8E-\	8r	.
8r	8ee- 8cc\	.
8F\	8r	.
8r	8cc 8a\	.
=291	=291	=291
16BB-\LL	16r	.
16B-\	16b-\LL	.
16BB-\	16gg 16ee-\	.
16B-\JJ	16b-\JJ	.
*rep	*	*
16BB-\LL	16ffLL 16dd\	.
16B-\	16b-\	.
16BB-\	16gg 16ee-\	.
16B-\JJ	16b-\JJ	.
*Xrep	*	*
=292	=292	=292
*rep	*	*
16BB-\LL	16ffLL 16dd\	.
16B-\	16b-\	.
16BB-\	16gg 16ee-\	.
16B-\JJ	16b-\JJ	.
*Xrep	*	*
*rep	*	*
16BB-\LL	16ffLL 16dd\	.
16B-\	16b-\	.
16BB-\	16gg 16ee-\	.
16B-\JJ	16b-\JJ	.
*Xrep	*	*
=293	=293	=293
8BB-/	8ff 8dd\	.
8r	8r	.
8D/L	8ddL 8b-\	.
8D/J	8ddJ 8b-\	.
=294	=294	=294
*	*^	*
8E-\L	8cc/L	8b-\L	.
8E-\	8cc/	8b-\J	.
8F\	8ff/	8a\L	.
8F\J	8ff/J	8a\J	.
*	*v	*v	*
!!LO:LB:g=original
=295	=295	=295
4BB-/	16r	.
.	16B-/LL	.
.	16c/	.
.	16d/JJ	.
4r	16e-/LL	.
.	16f/	.
.	16g/	.
.	16a/JJ	.
=296	=296	=296
4F 4D 4BB-/	16b-/LL	.
.	16d/	.
.	16e-/	.
.	16f/JJ	.
4r	16g/LL	.
.	16a/	.
.	16b-/	.
.	16cc/JJ	.
=297	=297	=297
4F 4D 4BB-\	16dd/LL	.
.	16f/	.
.	16g/	.
.	16a/JJ	.
4r	16b-\LL	.
.	16cc\	.
.	16dd\	.
.	16ee-\JJ	.
=298	=298	=298
4F 4D 4BB-\	16ff\LL	.
.	16b-\	.
.	16cc\	.
.	16dd\JJ	.
4r	16ee-\LL	.
.	16ff\	.
.	16gg\	.
.	16aa\JJ	.
=299	=299	=299
8F 8D 8BB-\	8bb-\	.
8r	8r	.
8G 8GG/	8bb- 8dd\	.
8r	8r	.
=300	=300	=300
8E- 8EE-/	8bb- 8cc\	.
8r	8r	.
8F 8FF/	8aa 8cc\	.
8r	8r	.
=301	=301	=301
!LO:TX:a:t=P:problem=mixed beam	!	!
8BB-/L	16dd\LL	.
.	16bb-\	.
8d\J	16dd\	.
.	16bb-\JJ	.
!LO:TX:a:t=P:problem=mixed beam	!	!
*	*rep	*
8GG/L	16dd\LL	.
.	16bb-\	.
8G\J	16dd\	.
.	16bb-\JJ	.
*	*Xrep	*
=302	=302	=302
!LO:TX:a:t=P:problem=mixed beam	!	!
8EE-/L	16cc\LL	.
.	16bb-\	.
8E-\J	16cc\	.
.	16bb-\JJ	.
!LO:TX:a:t=P:problem=mixed beam	!	!
8FF/L	16cc\LL	.
.	16aa\	.
8F\J	16cc\	.
.	16aa\JJ	.
=303	=303	=303
4BB- 4BBB-/	8bb-L 8dd\	.
.	8bb-\	.
4r	8ff\	.
.	8dd\J	.
!!LO:LB:g=original
=304	=304	=304
8r	8b-/L	.
8B-L 8BB-/	8b-/	.
8F 8FF/	8f/	.
8DJ 8DD/	8d/J	.
=305	=305	=305
4BB- 4BBB-/	4B-/	.
4BB- 4BBB-/	4bb- 4ff 4dd\	.
=306	=306	=306
4BB- 4BBB-/	4bb- 4ff 4dd\	.
4r	4r	.
==	==	==
*-	*-	*-
!!!system-decoration: s1,s2
!!!RDF**kern: > = above
!!!RDF**kern: < = below
!!!RDF**kern: | = vertical stroke
!!!EED: Mateusz Mrugas
!!!EEV: 2020-12-06
!!!ENC: Berenika Jozajtis
!!!END: 2020-06-18
